X: 653
T: Home Brew Rag
C:J.T. Perkins
B: jims roots
M:C|
L:1/8
Q: 1/4=100
K:Bb
V:1 
"Bb"B2Bc B2FD | GFDG FD_DC | B,G,B,C DFGD | [F2B][FB][GB][F2B]B2- |
B2Bc B2FB | GB_GB F=GDB, | "C7"CD=EG cABG | "F7"AcAG F2[D2B]- |
"Bb"[D2B] [DB][Dc] [D2B]FD | GFDG FD_DC | B,G,B,C DFGD | [F2B][F2B]-[F2B] ([^c2f] |
ABcd cAFG | Acfg afdA | "G7"=Bdfg af_af | "C7"gbgf edcB |
"F"[Af][c2f][Af][c2f] J[c2f]- | [cf]faf gfdc | [Af][c2f][Af][df][cf][Af][df] | [c2f][c2f]- [c2f][c2^g] |
V:d2f) 
V:B2f 
- [B2f][F2B] | "Gm"GFDG FDCD | "C7"GFEC "F7"A,B,CA, | "Bb"B,2 [B,2D]- [B,2D] cB ||
V:K:F 
"F"ABcd cAFG | Acfg afcB | A[c2f]A dcAd | c2[cf][df] [c2f]cB |
V:c2a 
V:A2f 
- [A2f][c2f] | "Dm"dcAd cAFA | "C7"dcBG ECEG | "F"F2 [A,6F] |]
% abcbook-tune_id 6298c25d4566804cdeea652c


% abcbook-boost 0
% abcbook-tablature 
% abcbook-transpose 
% abcbook-lastupdated 1654178398824
% abcbook-soundfonts 
% abcbook-repeats 1


